storage/app/icons/phosphoricons/thin/bug-thin.svg

<svg xmlns="http://www.w3.org/2000/svg" fill="currentColor" viewBox="0 0 256 256"><path d="M148 92a8 8 0 1 1 8 8 8 8 0 0 1-8-8m-48-8a8 8 0 1 0 8 8 8 8 0 0 0-8-8m144 44a4 4 0 0 1-4 4h-28v12a83.6 83.6 0 0 1-3.87 25.2l25.47 11.13A4 4 0 0 1 232 188a4.1 4.1 0 0 1-1.6-.33l-25-10.95a84 84 0 0 1-154.72 0l-25 10.95A4.1 4.1 0 0 1 24 188a4 4 0 0 1-1.6-7.67l25.47-11.13A83.6 83.6 0 0 1 44 144v-12H16a4 4 0 0 1 0-8h28v-12a83.6 83.6 0 0 1 3.87-25.2L22.4 75.67a4 4 0 0 1 3.2-7.34l25 11a84 84 0 0 1 154.72 0l25-11a4 4 0 1 1 3.2 7.34L208.13 86.8A83.6 83.6 0 0 1 212 112v12h28a4 4 0 0 1 4 4m-192-4h152v-12a76 76 0 0 0-152 0Zm72 95.89V132H52v12a76.09 76.09 0 0 0 72 75.89M204 132h-72v87.89A76.09 76.09 0 0 0 204 144Z"/></svg>

<svg xmlns="http://www.w3.org/2000/svg" viewBox="0 0 256 256" fill="currentColor"><path d="M148,92a8,8,0,1,1,8,8A8,8,0,0,1,148,92Zm-48-8a8,8,0,1,0,8,8A8,8,0,0,0,100,84Zm144,44a4,4,0,0,1-4,4H212v12a83.64,83.64,0,0,1-3.87,25.2l25.47,11.13A4,4,0,0,1,232,188a4.09,4.09,0,0,1-1.6-.33l-25-10.95a84,84,0,0,1-154.72,0l-25,10.95A4.09,4.09,0,0,1,24,188a4,4,0,0,1-1.6-7.67L47.87,169.2A83.64,83.64,0,0,1,44,144V132H16a4,4,0,0,1,0-8H44V112a83.64,83.64,0,0,1,3.87-25.2L22.4,75.67a4,4,0,0,1,3.2-7.34l25,11a84,84,0,0,1,154.72,0l25-11a4,4,0,1,1,3.2,7.34L208.13,86.8A83.64,83.64,0,0,1,212,112v12h28A4,4,0,0,1,244,128ZM52,124H204V112a76,76,0,0,0-152,0Zm72,95.89V132H52v12A76.09,76.09,0,0,0,124,219.89ZM204,132H132v87.89A76.09,76.09,0,0,0,204,144Z"/></svg>
